X: 717
T: Fandui xiyu shijian
%%abc-version 2.0
%%abcx-abcm2ps-target-version 5.9.1 (29 Sep 2008)
%%abc-creator hum2abc beta
%%abcx-conversion-date 2013/10/02 07:52:30
%%abc-edited-by Helmut Schaffrath
%%humdrum-veritas 3653483018
%%humdrum-veritas-data 2799891541
%%continueall 1
%%barnumbers 0
L: 1/8
M: 2/4
K: A
A A C B,/ C/ [I:setbarnb 1]| 
E EE2 | 
B e d c/ B/ | 
A4 | 
B e d c/ e/ | 
B B B e | 
A G/ F/E2 | 
c B/ c/ E D | 
E4 |]  



